cy/bubble-chart-outline-badged.svg

<svg version="1.1" viewBox="0 0 36 36" preserveAspectRatio="xMidYMid meet" xmlns="http://www.w3.org/2000/svg" height="1em" width="1em">
  <path class="clr-i-outline--badged clr-i-outline-path-1--badged" d="M 32 13.22 L 32 29 L 4 29 L 4 7 L 22.57 7 C 22.524 6.668 22.501 6.334 22.5 6 C 22.501 5.665 22.524 5.331 22.57 5 L 4 5 C 2.895 5 2 5.895 2 7 L 2 29 C 2 30.104 2.895 31 4 31 L 32 31 C 33.104 31 34 30.104 34 29 L 34 12.34 C 33.38 12.73 32.706 13.026 32 13.22 Z"/>
  <path d="M 29 18 C 29 19.657 27.657 21 26 21 C 24.343 21 23 19.657 23 18 C 23 16.343 24.343 15 26 15 C 27.657 15 29 16.343 29 18 Z M 26 16.6 C 25.227 16.6 24.6 17.227 24.6 18 C 24.6 18.773 25.227 19.4 26 19.4 C 26.773 19.4 27.4 18.773 27.4 18 C 27.4 17.227 26.773 16.6 26 16.6 Z" class="clr-i-outline--badged clr-i-outline-path-2--badged" rx="3"/>
  <path d="M 15 14 C 15 16.209 13.209 18 11 18 C 8.791 18 7 16.209 7 14 C 7 11.791 8.791 10 11 10 C 13.209 10 15 11.791 15 14 Z M 11 11.6 C 9.675 11.6 8.6 12.675 8.6 14 C 8.6 15.325 9.675 16.4 11 16.4 C 12.325 16.4 13.4 15.325 13.4 14 C 13.4 12.675 12.325 11.6 11 11.6 Z" class="clr-i-outline--badged clr-i-outline-path-3--badged" rx="3"/>
  <path d="M 21 23 C 21 24.657 19.657 26 18 26 C 16.343 26 15 24.657 15 23 C 15 21.343 16.343 20 18 20 C 19.657 20 21 21.343 21 23 Z M 18 21.6 C 17.227 21.6 16.6 22.227 16.6 23 C 16.6 23.773 17.227 24.4 18 24.4 C 18.773 24.4 19.4 23.773 19.4 23 C 19.4 22.227 18.773 21.6 18 21.6 Z" class="clr-i-outline--badged clr-i-outline-path-4--badged" rx="3"/>
  <circle class="clr-i-outline--badged clr-i-outline-path-5--badged clr-i-badge" cx="30" cy="6" r="5"/>
  <rect x="0" y="0" width="36" height="36" fill-opacity="0"/>
</svg>

<svg viewBox="0 0 36 36" xmlns="http://www.w3.org/2000/svg" height="1em" width="1em">
  <path class="clr-i-outline--badged clr-i-outline-path-1--badged" d="M32 13.22V29H4V7h18.57a7.447 7.447 0 0 1-.07-1c.001-.335.024-.669.07-1H4a2 2 0 0 0-2 2v22a2 2 0 0 0 2 2h28a2 2 0 0 0 2-2V12.34c-.62.39-1.294.686-2 .88Z"/>
  <path d="M29 18a3 3 0 1 1-6 0 3 3 0 0 1 6 0Zm-3-1.4a1.4 1.4 0 1 0 0 2.8 1.4 1.4 0 0 0 0-2.8Z" class="clr-i-outline--badged clr-i-outline-path-2--badged"/>
  <path d="M15 14a4 4 0 1 1-8 0 4 4 0 0 1 8 0Zm-4-2.4a2.4 2.4 0 1 0 .001 4.801A2.4 2.4 0 0 0 11 11.6Z" class="clr-i-outline--badged clr-i-outline-path-3--badged"/>
  <path d="M21 23a3 3 0 1 1-6 0 3 3 0 0 1 6 0Zm-3-1.4a1.4 1.4 0 1 0 0 2.8 1.4 1.4 0 0 0 0-2.8Z" class="clr-i-outline--badged clr-i-outline-path-4--badged"/>
  <circle class="clr-i-outline--badged clr-i-outline-path-5--badged clr-i-badge" cx="30" cy="6" r="5"/>
  <path fill="none" d="M0 0h36v36H0z"/>
</svg>
